packages/rn-bitcoin-icons/svg/outline/node-hardware.svg

<svg width="24" height="24" viewBox="0 0 24 24" fill="none" xmlns="http://www.w3.org/2000/svg">
<path d="M20.5391 9.98392V14.1072C20.5514 14.3564 20.4328 14.6111 20.1844 14.7513L13.0531 18.7751C12.4152 19.135 11.6357 19.136 10.9969 18.7776L3.82014 14.7521C3.56599 14.6096 3.4472 14.3472 3.46483 14.0931V9.99806C3.44748 9.74785 3.56221 9.48948 3.81004 9.345L10.9665 5.17282C11.6208 4.79136 12.43 4.7924 13.0833 5.17554L20.1946 9.34593C20.4366 9.4879 20.5512 9.73871 20.5391 9.98392Z" stroke="black"/>
<path d="M3.82016 10.5584C3.34867 10.2939 3.34304 9.61727 3.81007 9.34499L10.9665 5.17281C11.6208 4.79135 12.43 4.79239 13.0833 5.17554L20.1946 9.34592C20.6595 9.61859 20.6539 10.2927 20.1845 10.5576L13.0531 14.5813C12.4152 14.9413 11.6357 14.9423 10.9969 14.5839L3.82016 10.5584Z" stroke="black"/>
</svg>

<svg xmlns="http://www.w3.org/2000/svg" fill="none" viewBox="0 0 24 24" stroke="currentColor">
  <path d="M20.54 9.984v4.123a.694.694 0 01-.356.644l-7.13 4.024c-.639.36-1.418.361-2.057.003L3.82 14.752a.694.694 0 01-.355-.659V9.998a.693.693 0 01.345-.653l7.156-4.172a2.097 2.097 0 012.117.003l7.112 4.17a.693.693 0 01.344.638z"/>
  <path d="M3.82 10.558a.699.699 0 01-.01-1.213l7.157-4.172a2.097 2.097 0 012.116.003l7.112 4.17a.699.699 0 01-.01 1.212l-7.132 4.023a2.096 2.096 0 01-2.056.003L3.82 10.558z"/>
</svg>
